packages/core/src/svgs/derc.svg

<svg width="24" height="24" viewBox="0 0 24 24" fill="none" xmlns="http://www.w3.org/2000/svg">
<g clip-path="url(#clip0_31_9108)">
<path d="M0 0H24V24H0V0Z" fill="url(#paint0_linear_31_9108)"/>
<path d="M8.3786 5.67021C9.55812 5.33981 10.7753 5.16264 12 5.14307C12.9943 5.14307 14.43 5.32307 15.6215 5.67021C16.2172 5.84164 16.7786 6.06449 17.2072 6.33878C17.61 6.60449 18 6.99878 18 7.53878V15.7974C18 16.1702 17.8372 16.5302 17.5415 16.7745C16.7732 17.4003 15.9674 17.9785 15.1286 18.5059C14.6186 18.8188 14.0743 19.1188 13.5472 19.3416C13.0286 19.5559 12.4886 19.7145 12 19.7145C11.5115 19.7145 10.9715 19.5602 10.4529 19.3416C9.90362 19.1042 9.37348 18.8248 8.86717 18.5059C8.02983 17.9783 7.22548 17.4001 6.4586 16.7745C6.31409 16.6562 6.1979 16.507 6.11855 16.3379C6.0392 16.1688 5.9987 15.9841 6.00003 15.7974V7.54307C6.00003 7.00307 6.38575 6.60878 6.79717 6.34307C7.22146 6.06878 7.78289 5.84592 8.3786 5.67449V5.67021ZM7.26432 7.05878C6.92575 7.27735 6.85717 7.4445 6.85717 7.53878V15.7974C6.85717 15.9259 6.91289 16.0374 6.9986 16.1102C7.4486 16.4702 8.34003 17.1688 9.32146 17.7774C9.78819 18.0714 10.2768 18.3293 10.7829 18.5488C11.1655 18.7276 11.5785 18.8323 12 18.8574C12.4216 18.8323 12.8346 18.7276 13.2172 18.5488C13.7233 18.3293 14.2119 18.0714 14.6786 17.7774C15.4862 17.268 16.2619 16.7098 17.0015 16.1059C17.0872 16.0374 17.1429 15.9259 17.1429 15.7974V7.54307C17.1429 7.45307 17.0743 7.28592 16.7357 7.06307C16.3145 6.81213 15.86 6.62169 15.3857 6.49735C14.283 6.18787 13.1452 6.0208 12 6.00021C11.0829 6.00021 9.7286 6.17164 8.61432 6.49307C8.05717 6.65592 7.58575 6.84878 7.26432 7.05878Z" fill="white"/>
<path d="M8.3785 10.9156L6.53564 12.9042V16.4528H8.00564C9.52707 16.0885 10.4228 15.3042 10.6799 14.9571C11.0528 15.2656 11.7728 15.1799 12.0856 15.1028H13.1356C13.6028 15.1028 13.5042 15.6856 13.3285 15.9428C13.1828 16.1528 12.9128 16.4656 12.7628 16.6371H12.3514C12.3127 16.6372 12.2758 16.6526 12.2485 16.6799C11.9528 16.9499 11.8285 17.3356 11.7899 17.5799C11.7771 17.6656 11.8456 17.7299 11.9314 17.7299H12.4499L13.1828 17.1728C13.2206 17.208 13.2652 17.2353 13.3138 17.2529C13.3624 17.2706 13.414 17.2783 13.4656 17.2756C13.7871 17.2756 13.8085 16.7271 13.9071 16.4528C14.0956 15.9042 14.3014 15.6128 14.3014 15.1456C14.3014 14.5456 13.7956 14.3614 13.5299 14.3399C13.1442 14.3142 13.1271 14.0914 13.3414 13.8942C13.5471 13.7056 13.8856 13.4228 14.0656 13.5085C14.3271 13.6371 14.5542 14.0271 14.6656 14.2799C14.7556 14.4814 14.8671 14.5114 14.9099 14.5028V14.6442C14.7642 14.6656 14.5328 14.9871 14.5799 15.1928C14.6956 15.6728 14.9399 15.9771 15.1071 15.9771C15.2442 15.9771 15.3942 15.6514 15.4542 15.4842C15.5528 15.2442 15.6685 14.6014 15.6128 14.1899C15.5871 13.9928 14.9871 13.5471 14.7599 13.2942C14.6442 13.1656 14.5499 13.0414 14.5242 12.9942C14.3356 12.6342 14.0828 12.5656 13.9542 12.5656C13.6242 12.5656 13.4314 12.9042 13.1185 12.9042C12.4242 12.9042 12.4628 11.8671 12.4714 11.7128C12.4799 11.5628 12.4628 11.4728 12.1971 11.2285C11.9356 10.9885 11.9271 10.2856 12.3128 10.2856C12.6171 10.2856 12.7199 10.7571 12.7328 10.9885C12.7628 11.3399 12.7328 12.2399 13.4099 12.2399C13.9628 12.2399 14.1128 10.8471 14.1685 10.4185C14.2242 9.98993 14.4256 9.34708 14.6956 9.34708C14.9099 9.34708 14.9614 9.73279 14.9571 9.92565C15.5742 8.95279 14.4599 8.40422 14.3014 8.27993C14.1728 8.18136 14.1428 8.06136 14.1428 8.01422V7.67993C14.0271 7.78279 13.7442 7.76565 13.6156 7.74422C13.1571 6.97708 12.0685 7.30708 11.3828 7.39708C11.0914 7.01136 10.8428 7.12279 10.7528 7.22565L10.2942 7.87279C10.2586 7.92232 10.2115 7.96258 10.1571 7.99017C10.1027 8.01776 10.0424 8.03189 9.98136 8.03136H9.21422C9.66422 8.15565 9.91707 8.6185 9.4585 8.80279C9.08993 8.93993 8.75993 8.65708 8.64422 8.49422C8.60993 8.79422 8.72993 8.99993 8.89707 9.22708C9.15422 9.5785 9.05564 9.70708 8.96136 9.7285C8.34422 9.67708 7.89422 10.2685 7.82564 10.2856C8.51564 10.1742 8.56707 10.7142 8.38279 10.9156H8.3785Z" fill="white"/>
</g>
<defs>
<linearGradient id="paint0_linear_31_9108" x1="4.46571" y1="4.16143" x2="29.2071" y2="32.58" gradientUnits="userSpaceOnUse">
<stop stop-color="#1A1E21"/>
<stop offset="1" stop-color="#06060A"/>
</linearGradient>
<clipPath id="clip0_31_9108">
<rect width="24" height="24" fill="white"/>
</clipPath>
</defs>
</svg>

<svg xmlns="http://www.w3.org/2000/svg" width="24" height="24" fill="none" viewBox="0 0 24 24"><g clip-path="url(#a)"><path fill="url(#b)" d="M0 0h24v24H0z"/><path fill="#fff" d="M8.379 5.67c1.18-.33 2.396-.507 3.621-.527.994 0 2.43.18 3.621.527.596.172 1.158.394 1.586.669.403.265.793.66.793 1.2v8.258c0 .373-.163.733-.459.977a24 24 0 0 1-2.412 1.732c-.51.313-1.055.613-1.582.836-.518.214-1.058.373-1.547.373s-1.028-.155-1.547-.373q-.826-.357-1.586-.836a24 24 0 0 1-2.408-1.732A1.25 1.25 0 0 1 6 15.798V7.543c0-.54.386-.934.797-1.2.424-.274.986-.497 1.582-.669zM7.264 7.06c-.338.218-.407.385-.407.48v8.258c0 .129.056.24.142.313.45.36 1.341 1.059 2.322 1.667q.702.442 1.462.772c.383.179.796.283 1.217.308.422-.025.835-.13 1.217-.308q.76-.33 1.462-.772a24 24 0 0 0 2.323-1.671.4.4 0 0 0 .14-.309V7.543c0-.09-.068-.257-.406-.48a5.2 5.2 0 0 0-1.35-.566A13.4 13.4 0 0 0 12 6c-.917 0-2.271.172-3.386.493-.557.163-1.028.356-1.35.566"/><path fill="#fff" d="m8.379 10.916-1.843 1.988v3.549h1.47c1.521-.364 2.417-1.149 2.674-1.496.373.309 1.093.223 1.406.146h1.05c.467 0 .368.583.193.84-.146.21-.416.523-.566.694h-.412a.15.15 0 0 0-.103.043c-.295.27-.42.656-.458.9-.013.086.056.15.141.15h.519l.733-.557a.38.38 0 0 0 .283.103c.321 0 .343-.549.441-.823.189-.549.394-.84.394-1.307 0-.6-.505-.785-.771-.806-.386-.026-.403-.249-.189-.446.206-.188.545-.471.725-.386.261.13.488.52.6.772.09.201.201.231.244.223v.141c-.146.022-.377.343-.33.549.116.48.36.784.527.784.137 0 .287-.326.347-.493.099-.24.214-.883.159-1.294-.026-.197-.626-.643-.853-.896a2 2 0 0 1-.236-.3c-.188-.36-.441-.428-.57-.428-.33 0-.523.338-.836.338-.694 0-.655-1.037-.647-1.191.009-.15-.008-.24-.274-.484-.261-.24-.27-.943.116-.943.304 0 .407.471.42.703.03.35 0 1.25.677 1.25.553 0 .703-1.392.758-1.82.056-.43.258-1.072.528-1.072.214 0 .265.386.261.579.617-.973-.497-1.522-.656-1.646-.128-.099-.158-.219-.158-.266V7.68c-.116.103-.399.086-.527.064-.459-.767-1.547-.437-2.233-.347-.292-.386-.54-.274-.63-.171l-.459.647a.38.38 0 0 1-.313.158h-.767c.45.125.703.587.245.772-.37.137-.7-.146-.815-.309-.034.3.086.506.253.733.257.351.159.48.064.502-.617-.052-1.067.54-1.135.557.69-.112.741.428.557.63z"/></g><defs><linearGradient id="b" x1="4.466" x2="29.207" y1="4.161" y2="32.58" gradientUnits="userSpaceOnUse"><stop stop-color="#1A1E21"/><stop offset="1" stop-color="#06060A"/></linearGradient><clipPath id="a"><path fill="#fff" d="M0 0h24v24H0z"/></clipPath></defs></svg>
